X:364
T:Uncle's Jig
S:Trad
O:England
M:6/8
L:1/8
R:Jig 32
K:G
|:ddd dBc | ddd def | g2g f2e |  d3 d2B | c2e edc |
|B2d G2B | A2B cBA |1 GAG FED :|2 G3 B3 ||

